X: 1083
T: I'll Neither Spin Nor Weave
R:double jig
N:"collected by J.O'Neill"
B:O'Neill's 1083
Z:Transcribed by henrik.norbeck@mailbox.swipnet.se
M:6/8
L:1/8
K:G
c|BAG AFD|D2D DEG|G2B c2e|dBG A2c|
BAG AFD|D2D DEG|BAG AFD|G3 G2:|
G|G>AG GBd|ege dBG|c2B ABd|BAG AFD|
G>AG GBd|ege dBG|BAG AFD|G3 G2:|


